outputs/icons/audio_video/pause_circle_round.svg

<svg xmlns="http://www.w3.org/2000/svg" width="1200" height="1200" fill="none"><g clip-path="url(#a)"><path fill="#000" d="M600 100c-276 0-500 224-500 500s224 500 500 500 500-224 500-500-224-500-500-500M500 800c-27.5 0-50-22.5-50-50V450c0-27.5 22.5-50 50-50s50 22.5 50 50v300c0 27.5-22.5 50-50 50m200 0c-27.5 0-50-22.5-50-50V450c0-27.5 22.5-50 50-50s50 22.5 50 50v300c0 27.5-22.5 50-50 50"/></g><defs><clipPath id="a"><path fill="#fff" d="M0 0h1200v1200H0z"/></clipPath></defs></svg>

<svg width="1200" height="1200" viewBox="0 0 1200 1200" fill="none" xmlns="http://www.w3.org/2000/svg"><g clip-path="url(#clip0_231_5130)"><path d="M600 100C324 100 100 324 100 600C100 876 324 1100 600 1100C876 1100 1100 876 1100 600C1100 324 876 100 600 100ZM500 800C472.5 800 450 777.5 450 750V450C450 422.5 472.5 400 500 400C527.5 400 550 422.5 550 450V750C550 777.5 527.5 800 500 800ZM700 800C672.5 800 650 777.5 650 750V450C650 422.5 672.5 400 700 400C727.5 400 750 422.5 750 450V750C750 777.5 727.5 800 700 800Z" fill="black"/></g><defs><clipPath id="clip0_231_5130"><path width="24" fill="white" d="M0 0H1200V1200H0V0z"/></clipPath></defs></svg>
